icons/grid-line.svg

<svg xmlns="http://www.w3.org/2000/svg" width="24" height="24" fill="none"><g clip-path="url(#a)"><g><path fill="#121212" d="M14 10H10V14H14V10ZM16 10V14H19V10H16ZM14 19V16H10V19H14ZM16 19H19V16H16V19ZM14 5H10V8H14V5ZM16 5V8H19V5H16ZM8 10H5V14H8V10ZM8 19V16H5V19H8ZM8 5H5V8H8V5ZM4 3H20C20.2652 3 20.5196 3.10536 20.7071 3.29289C20.8946 3.48043 21 3.73478 21 4V20C21 20.2652 20.8946 20.5196 20.7071 20.7071C20.5196 20.8946 20.2652 21 20 21H4C3.73478 21 3.48043 20.8946 3.29289 20.7071C3.10536 20.5196 3 20.2652 3 20V4C3 3.73478 3.10536 3.48043 3.29289 3.29289C3.48043 3.10536 3.73478 3 4 3Z"/></g></g><defs><clipPath id="a"><rect width="24" height="24" fill="white"/></clipPath></defs></svg>

<svg width="24" height="24" fill="none" xmlns="http://www.w3.org/2000/svg"><g clip-path="url(#a)"><path d="M14 10h-4v4h4v-4Zm2 0v4h3v-4h-3Zm-2 9v-3h-4v3h4Zm2 0h3v-3h-3v3ZM14 5h-4v3h4V5Zm2 0v3h3V5h-3Zm-8 5H5v4h3v-4Zm0 9v-3H5v3h3ZM8 5H5v3h3V5ZM4 3h16a1 1 0 0 1 1 1v16a1 1 0 0 1-1 1H4a1 1 0 0 1-1-1V4a1 1 0 0 1 1-1Z" /></g><defs><clipPath id="a"><path fill="#fff" d="M0 0h24v24H0z"/></clipPath></defs></svg>
